assets/images/about/el-2.svg

<svg width="34" height="35" viewBox="0 0 34 35" fill="none" xmlns="http://www.w3.org/2000/svg">
<path d="M33.5 11.8262H30.9845C30.8205 7.64376 28.338 3.88397 24.26 1.70682C24.105 1.62378 23.9125 1.62115 23.755 1.69936C23.598 1.77713 23.5 1.92344 23.5 2.0825V6.55366H21.5V0.894846C21.5 0.702396 21.3575 0.531916 21.148 0.475235C20.312 0.247635 19.4395 0.0890178 18.5545 0.0028988C18.4135 -0.0102827 18.2725 0.0288226 18.1665 0.112305C18.0605 0.195788 18 0.31486 18 0.439645V5.23551H16V0.439645C16 0.31486 15.9395 0.195788 15.8335 0.112305C15.7275 0.0288226 15.5855 -0.0116008 15.445 0.0028988C14.5595 0.0890178 13.6865 0.247635 12.852 0.475235C12.6425 0.531916 12.5 0.701957 12.5 0.894846V6.55366H10.5V2.0825C10.5 1.92388 10.4025 1.77757 10.245 1.69936C10.088 1.62158 9.895 1.62422 9.7405 1.70682C5.6625 3.88397 3.1795 7.64376 3.016 11.8262H0.5C0.224 11.8262 0 12.0231 0 12.2656V14.9019C0 15.1445 0.224 15.3413 0.5 15.3413H33.5C33.7765 15.3413 34 15.1445 34 14.9019V12.2656C34 12.0231 33.7765 11.8262 33.5 11.8262ZM9.5 2.89535V6.99304C9.5 7.23558 9.724 7.43242 10 7.43242H13C13.276 7.43242 13.5 7.23558 13.5 6.99304V1.2235C13.9895 1.10399 14.491 1.00952 15 0.940542V5.67489C15 5.91743 15.224 6.11427 15.5 6.11427H18.5C18.7765 6.11427 19 5.91743 19 5.67489V0.940981C19.509 1.00952 20.0105 1.10443 20.5 1.22394V6.99304C20.5 7.23558 20.7235 7.43242 21 7.43242H24C24.2765 7.43242 24.5 7.23558 24.5 6.99304V2.89535C27.825 4.95562 29.84 8.21979 29.99 11.8262H4.0095C4.161 8.21979 6.1745 4.95562 9.5 2.89535ZM33 14.4625H1V12.705H3.5H30.5H33V14.4625Z" fill="#0029FF"/>
<path d="M17 29.8407C10.0755 29.8407 4.5 22.6298 4.5 16.6596C4.5 16.4171 4.724 16.2202 5 16.2202C5.276 16.2202 5.5 16.4171 5.5 16.6596C5.5 22.1974 10.8065 28.962 17 28.962C23.1935 28.962 28.5 22.1974 28.5 16.6596C28.5 16.4171 28.7235 16.2202 29 16.2202C29.2765 16.2202 29.5 16.4171 29.5 16.6596C29.5 22.6298 23.925 29.8407 17 29.8407Z" fill="#0029FF"/>
<path d="M17.0008 34.8114C16.8913 34.8114 16.7818 34.7802 16.6908 34.717L9.53375 29.7459C9.31725 29.5952 9.28025 29.3189 9.45125 29.1291C9.62275 28.9379 9.93775 28.9063 10.1538 29.057L17.0008 33.8123L23.8473 29.057C24.0653 28.9059 24.3788 28.9388 24.5493 29.1291C24.7203 29.3202 24.6843 29.5961 24.4673 29.7459L17.3108 34.717C17.2198 34.7798 17.1103 34.8114 17.0008 34.8114Z" fill="#0029FF"/>
</svg>

<svg width="34" height="35" fill="none" xmlns="http://www.w3.org/2000/svg"><path d="M33.5 11.826h-2.515c-.165-4.182-2.647-7.942-6.725-10.12a.557.557 0 00-.505-.007.434.434 0 00-.255.383v4.472h-2V.894c0-.192-.142-.362-.352-.419a15.682 15.682 0 00-2.593-.472.547.547 0 00-.389.11A.418.418 0 0018 .44v4.796h-2V.44a.418.418 0 00-.166-.328.543.543 0 00-.389-.11c-.886.087-1.758.246-2.593.473-.21.057-.352.227-.352.42v5.659h-2V2.083a.435.435 0 00-.255-.384.56.56 0 00-.504.008C5.662 3.884 3.18 7.644 3.016 11.827H.5c-.276 0-.5.196-.5.439v2.636c0 .243.224.44.5.44h33c.276 0 .5-.197.5-.44v-2.636c0-.243-.224-.44-.5-.44zm-24-8.93v4.097c0 .243.224.44.5.44h3c.276 0 .5-.197.5-.44v-5.77c.49-.119.991-.213 1.5-.282v4.734c0 .242.224.44.5.44h3c.276 0 .5-.198.5-.44V.94c.509.069 1.01.163 1.5.283v5.769c0 .243.224.44.5.44h3c.276 0 .5-.197.5-.44V2.895c3.325 2.06 5.34 5.325 5.49 8.931H4.01c.151-3.606 2.165-6.87 5.49-8.93zM33 14.462H1v-1.758h32v1.758zM17 29.84c-6.925 0-12.5-7.21-12.5-13.18 0-.243.224-.44.5-.44s.5.197.5.44c0 5.537 5.306 12.302 11.5 12.302s11.5-6.765 11.5-12.302c0-.243.224-.44.5-.44s.5.197.5.44c0 5.97-5.575 13.18-12.5 13.18z" fill="#0029FF"/><path d="M17 34.811a.544.544 0 01-.31-.094l-7.156-4.971c-.217-.15-.254-.427-.083-.617a.547.547 0 01.703-.072L17 33.812l6.846-4.755a.546.546 0 01.702.072c.171.191.135.467-.082.617l-7.156 4.971a.547.547 0 01-.31.094z" fill="#0029FF"/></svg>
